X: 294
T: Polska efter Jämt-Pelle
R: Slängpolska
S: nedtecknad efter en inspelning från Korrö av en fiolspelman som hade lärt sig den av nyckelharpisten [[Personer/Daniel Petterson]] som i sin tur hade lärt sig den av [[Personer/Sören Johansson]] från Dorotea.
O: Lappland
Z: till abc av Nils L, 2008-06-06
M: 3/4
L: 1/16
K: Gm
{g^f}g4 d4 B4 | {cB}A2G^F G4>D4 | G2AB {/B}c2A2 d2D2 | G2AB {AB}A2^F2 D4 |
{g^f}g2g2 d2d2 B2B2 | A2G^F G4>D4 | G2AB {/B}c2A2 d2>B2 | A2G^F G8 ::
G2AB {/B}c2A2 A2D2 | G2AB G2A2 A2B2 | B2cd {/d}e2c2 {cd}c2A2 | B2cd B2c2 c2d2 |
d2=e^f {/f}a2{fa}f2 d4 | g2ab a2g^f g4 | G2AB A2G^F G2B,2 |1 A,2B,A, G,6 D2 :|2 A,2B,A, G,8 |]
(:musicend:)

(:music:)
